FORWARD 10
LEFT 60
FORWARD 10
RIGHT 120
FORWARD 10
LEFT 60
FORWARD 10

LEFT 60

FORWARD 10
LEFT 60
FORWARD 10
RIGHT 120
FORWARD 10
LEFT 60
FORWARD 10

RIGHT 120

FORWARD 10
LEFT 60
FORWARD 10
RIGHT 120
FORWARD 10
LEFT 60
FORWARD 10

LEFT 60

FORWARD 10
LEFT 60
FORWARD 10
RIGHT 120
FORWARD 10
LEFT 60
FORWARD 10


LEFT 60

FORWARD 10

LEFT 60
FORWARD 10
RIGHT 120
FORWARD 10
LEFT 60
FORWARD 10

LEFT 60

FORWARD 10
LEFT 60
FORWARD 10
RIGHT 120
FORWARD 10
LEFT 60
FORWARD 10

RIGHT 120

FORWARD 10
LEFT 60
FORWARD 10
RIGHT 120
FORWARD 10
LEFT 60
FORWARD 10

LEFT 60

FORWARD 10
LEFT 60
FORWARD 10
RIGHT 120
FORWARD 10
LEFT 60
FORWARD 10

RIGHT 120

FORWARD 10
LEFT 60
FORWARD 10
RIGHT 120
FORWARD 10
LEFT 60
FORWARD 10

LEFT 60

FORWARD 10
LEFT 60
FORWARD 10
RIGHT 120
FORWARD 10
LEFT 60
FORWARD 10

RIGHT 120

FORWARD 10
LEFT 60
FORWARD 10
RIGHT 120
FORWARD 10
LEFT 60
FORWARD 10

LEFT 60

FORWARD 10
LEFT 60
FORWARD 10
RIGHT 120
FORWARD 10
LEFT 60
FORWARD 10

LEFT 60


FORWARD 10
LEFT 60
FORWARD 10
RIGHT 120
FORWARD 10
LEFT 60
FORWARD 10

LEFT 60

FORWARD 10
LEFT 60
FORWARD 10
RIGHT 120
FORWARD 10
LEFT 60
FORWARD 10

RIGHT 120

FORWARD 10
LEFT 60
FORWARD 10
RIGHT 120
FORWARD 10
LEFT 60
FORWARD 10

LEFT 60

FORWARD 10
LEFT 60
FORWARD 10
RIGHT 120
FORWARD 10
LEFT 60
FORWARD 10
